Papirus/24x24/apps/accessories-notes.svg

<svg xmlns="http://www.w3.org/2000/svg" width="24" height="24" version="1">
 <path d="m 3,2.5 c -0.554,0 -1,0.446 -1,1 v 18 c 0,0.554 0.446,1 1,1 h 11 l 8,-8 v -11 c 0,-0.554 -0.446,-1 -1,-1 z" style="opacity:0.2"/>
 <path style="fill:#fecd38" d="M 3,2 C 2.446,2 2,2.446 2,3 v 18 c 0,0.554 0.446,1 1,1 h 11 l 8,-8 V 3 C 22,2.446 21.554,2 21,2 Z"/>
 <path style="fill:#ffe69b" d="m 22,14 h -7 c -0.5523,0 -1,0.44772 -1,1 v 7 z"/>
 <path style="opacity:0.2;fill:#ffffff" d="M 3,2 C 2.446,2 2,2.446 2,3 v 0.5 c 0,-0.554 0.446,-1 1,-1 h 18 c 0.554,0 1,0.446 1,1 V 3 C 22,2.446 21.554,2 21,2 Z"/>
 <path style="opacity:0.2;fill:#ffffff" d="m 15,14 c -0.5523,0 -1,0.44772 -1,1 v 0.5 c 0,-0.5523 0.447715,-1 1,-1 h 6.5 L 22,14 Z"/>
 <path d="m 5,7.5 c -0.554,0 -1,0.446 -1,1 0,0.554 0.446,1 1,1 h 14 c 0.554,0 1,-0.446 1,-1 0,-0.554 -0.446,-1 -1,-1 z m 0,4 c -0.554,0 -1,0.446 -1,1 0,0.554 0.446,1 1,1 h 9 c 0.554,0 1,-0.446 1,-1 0,-0.554 -0.446,-1 -1,-1 z m 0,4 c -0.554,0 -1,0.446 -1,1 0,0.554 0.446,1 1,1 h 5 c 0.554,0 1,-0.446 1,-1 0,-0.554 -0.446,-1 -1,-1 z" style="opacity:0.1"/>
 <path style="fill:#4f4f4f" d="M 5,7 C 4.446,7 4,7.446 4,8 4,8.554 4.446,9 5,9 H 19 C 19.554,9 20,8.554 20,8 20,7.446 19.554,7 19,7 Z m 0,4 c -0.554,0 -1,0.446 -1,1 0,0.554 0.446,1 1,1 h 9 c 0.554,0 1,-0.446 1,-1 0,-0.554 -0.446,-1 -1,-1 z m 0,4 c -0.554,0 -1,0.446 -1,1 0,0.554 0.446,1 1,1 h 5 c 0.554,0 1,-0.446 1,-1 0,-0.554 -0.446,-1 -1,-1 z"/>
</svg>

<svg xmlns="http://www.w3.org/2000/svg" width="24" height="24" version="1">
 <path style="opacity:0.2" d="M 3,2.5 C 2.446,2.5 2,2.946 2,3.5 V 21.5 C 2,22.054 2.446,22.5 3,22.5 H 14 L 22,14.5 V 3.5 C 22,2.946 21.554,2.5 21,2.5 Z"/>
 <path style="fill:#fecd38" d="M 3,2 C 2.446,2 2,2.446 2,3 V 21 C 2,21.554 2.446,22 3,22 H 14 L 22,14 V 3 C 22,2.446 21.554,2 21,2 Z"/>
 <path style="fill:#ffe69b" d="M 22,14 H 15 C 14.448,14 14,14.448 14,15 V 22 Z"/>
 <path style="opacity:0.2;fill:#ffffff" d="M 3,2 C 2.446,2 2,2.446 2,3 V 3.5 C 2,2.946 2.446,2.5 3,2.5 H 21 C 21.554,2.5 22,2.946 22,3.5 V 3 C 22,2.446 21.554,2 21,2 Z"/>
 <path style="opacity:0.2;fill:#ffffff" d="M 15,14 C 14.448,14 14,14.448 14,15 V 15.5 C 14,14.948 14.448,14.5 15,14.5 H 21.5 L 22,14 Z"/>
 <rect style="opacity:0.1" width="16" height="2" x="4" y="7.5" rx="1" ry="1"/>
 <rect style="fill:#4f4f4f" width="16" height="2" x="4" y="7" rx="1" ry="1"/>
 <rect style="opacity:0.1" width="11" height="2" x="4" y="11.5" rx="1" ry="1"/>
 <rect style="fill:#4f4f4f" width="11" height="2" x="4" y="11" rx="1" ry="1"/>
 <rect style="opacity:0.1" width="7" height="2" x="4" y="15.5" rx="1" ry="1"/>
 <rect style="fill:#4f4f4f" width="7" height="2" x="4" y="15" rx="1" ry="1"/>
</svg>
